Costumes/spaceship-a.svg

<?xml version="1.0" encoding="UTF-8" standalone="no"?>
<svg
   version="1.1"
   width="111.66286"
   height="183.7363"
   id="svg23"
   sodipodi:docname="spaceship-a.svg"
   xmlns:inkscape="http://www.inkscape.org/namespaces/inkscape"
   xmlns:sodipodi="http://sodipodi.sourceforge.net/DTD/sodipodi-0.dtd"
   xmlns="http://www.w3.org/2000/svg"
   xmlns:svg="http://www.w3.org/2000/svg">
  <defs
     id="defs27" />
  <sodipodi:namedview
     id="namedview25"
     pagecolor="#ffffff"
     bordercolor="#000000"
     borderopacity="0.25"
     inkscape:showpageshadow="2"
     inkscape:pageopacity="0.0"
     inkscape:pagecheckerboard="0"
     inkscape:deskcolor="#d1d1d1" />
  <!-- Exported by Scratch - http://scratch.mit.edu/ -->
  <g
     id="ID0.25528564071282744"
     transform="matrix(0.90249997,0,0,0.90249997,-0.75369594,0.01220103)">
    <path
       id="ID0.5150838536210358"
       fill="#d1d3d4"
       stroke="#c2b59b"
       d="m 74.521,76.826 c -3.329,4.729 -5.53,12.881 -5.53,22.15 0,9.269 2.201,17.423 5.53,22.151 3.33,-4.729 5.531,-12.882 5.531,-22.151 0,-9.269 -2.2,-17.421 -5.531,-22.15 z"
       transform="matrix(2.0633752,0,0,2.0633752,-85.35,-48.15)" />
    <path
       id="ID0.586994057521224"
       fill="#d1d3d4"
       stroke="#c2b59b"
       d="m 52.586,77.438 c 0,0 -10.317,7.58 -10.317,18.317 0,10.739 5.158,22.741 5.158,22.741 L 60.586,98.913 Z"
       transform="matrix(2.0633752,0,0,2.0633752,-85.35,-48.15)" />
    <path
       id="ID0.3152541941963136"
       fill="#cd372e"
       d="m 98.409,67.019 c 0.515,2.14 0.788,4.374 0.788,6.676 0,15.364 -12.162,27.818 -27.163,27.818 -15,0 -26.978,-13.028 -26.978,-28.393 0,-4.473 0.788,-8.491 2.434,-12.236 1.646,-3.746 4.064,-7.249 9.673,-14.115 5.61,-6.865 8.624,-9.044 11.303,-14.318 2.679,-5.275 2.847,-8.622 4.019,-8.622 1.172,0 1.508,4.604 3.768,8.875 2.261,4.271 7.45,8.875 13.396,16.662 5.945,7.785 8.061,14.718 8.73,17.564 z"
       transform="matrix(2.0633752,0,0,2.0633752,-85.35,-48.15)" />
    <path
       id="ID0.9130098931491375"
       fill="#27aae1"
       d="m 61.87,56.481 c 3.057,0 5.827,1.242 7.833,3.248 2.006,2.006 3.248,4.776 3.248,7.833 0,3.057 -1.242,5.827 -3.248,7.833 -2.006,2.006 -4.776,3.248 -7.833,3.248 -3.057,0 -5.827,-1.242 -7.833,-3.248 -2.006,-2.006 -3.248,-4.776 -3.248,-7.833 0,-3.057 1.242,-5.827 3.248,-7.833 2.006,-2.006 4.776,-3.248 7.833,-3.248 z"
       transform="matrix(2.0633752,0,0,2.0633752,-85.35,-48.15)" />
    <path
       id="ID0.6974497074261308"
       fill="#e6e7e8"
       d="m 77.33,100.783 c 0,0 -4.756,-4.597 -5.754,-10.506 -1.201,-7.121 0.907,-14.519 2.213,-18.251 l 0.021,-0.045 c 0.65,-1.689 1.01,-3.563 1.01,-5.534 0,-7.498 -5.223,-13.578 -11.668,-13.578 -5.919,0 -11.937,5.613 -12.771,13.03 -0.815,7.243 -0.565,12.371 3,22.002 2.366,6.392 4.725,9.146 6.134,10.305 l 0.034,0.052 c 3.725,2.072 7.969,3.255 12.486,3.255 1.841,0 3.64,-0.188 5.378,-0.546 z M 61.455,78.037 c -4.94,0 -8.945,-4.084 -8.945,-9.121 0,-5.036 4.005,-9.12 8.945,-9.12 4.94,0 8.945,4.084 8.945,9.12 -0.001,5.037 -4.005,9.121 -8.945,9.121 z"
       transform="matrix(2.0633752,0,0,2.0633752,-85.35,-48.15)" />
    <path
       id="ID0.5012194369919598"
       fill="#da1c5c"
       d="m 77.671,35.005 c -1.877,0.543 -3.954,0.844 -6.14,0.844 -1.655,0 -3.248,-0.173 -4.74,-0.492 l -0.024,0.002 c 0.593,-0.885 1.153,-1.832 1.7,-2.908 0.166,-0.326 0.322,-0.645 0.469,-0.954 l 0.057,0.007 c 0.821,0.12 1.67,0.183 2.539,0.183 1.392,0 2.733,-0.16 3.994,-0.458 h 0.022 c 0.213,0.491 0.447,0.986 0.706,1.476 0.396,0.75 0.884,1.512 1.45,2.296 z"
       transform="matrix(2.0633752,0,0,2.0633752,-85.35,-48.15)" />
    <path
       id="ID0.29763966565951705"
       fill="#da1c5c"
       d="m 64.711,38.113 c 2.076,0.794 4.49,1.249 7.065,1.249 2.989,0 5.759,-0.613 8.038,-1.657 l 0.012,-0.016 c 1.406,1.673 3.059,3.505 4.875,5.611 l -0.021,0.005 c -3.4,1.602 -7.91,2.576 -12.857,2.576 -4.549,0 -8.727,-0.824 -12.013,-2.201"
       transform="matrix(2.0633752,0,0,2.0633752,-85.35,-48.15)" />
    <path
       id="ID0.420181293040514"
       fill="#a7a9ac"
       d="m 85.089,98.094 c -3.874,2.179 -8.321,3.419 -13.054,3.419 -4.478,0 -8.688,-1.162 -12.39,-3.2 l 0.036,0.126 c 0.363,2.313 5.906,4.903 12.692,4.903 7.021,0 12.715,-2.719 12.715,-5.146 0,-0.04 -0.002,-0.078 -0.005,-0.119 z"
       transform="matrix(2.0633752,0,0,2.0633752,-85.35,-48.15)" />
    <path
       id="ID0.1553567578084767"
       fill="none"
       stroke="#c2b59b"
       d="m 85.083,98.077 c 0.003,0.041 0.005,0.079 0.005,0.119 0,2.427 -5.693,5.146 -12.715,5.146 -6.786,0 -12.329,-2.59 -12.692,-4.903"
       transform="matrix(2.0633752,0,0,2.0633752,-85.35,-48.15)" />
    <path
       id="ID0.32193026412278414"
       fill="none"
       stroke="#c2b59b"
       d="m 84.764,43.268 c -3.409,1.622 -7.953,2.614 -12.941,2.614 -4.561,0 -8.75,-0.829 -12.039,-2.212"
       transform="matrix(2.0633752,0,0,2.0633752,-85.35,-48.15)" />
    <path
       id="ID0.9922009585425258"
       fill="none"
       stroke="#c2b59b"
       d="m 77.722,34.989 c -1.89,0.553 -3.985,0.859 -6.191,0.859 -1.665,0 -3.267,-0.175 -4.766,-0.499"
       transform="matrix(2.0633752,0,0,2.0633752,-85.35,-48.15)" />
    <path
       id="ID0.14914615079760551"
       fill="none"
       stroke="#c2b59b"
       d="m 75.59,31.212 c -1.279,0.309 -2.644,0.474 -4.059,0.474 -0.869,0 -1.718,-0.062 -2.539,-0.183"
       transform="matrix(2.0633752,0,0,2.0633752,-85.35,-48.15)" />
    <path
       id="ID0.9143646494485438"
       fill="none"
       stroke="#c2b59b"
       d="m 79.943,37.646 c -2.302,1.08 -5.121,1.717 -8.167,1.717 -2.584,0 -5.004,-0.459 -7.083,-1.256"
       transform="matrix(2.0633752,0,0,2.0633752,-85.35,-48.15)" />
    <path
       id="ID0.2940642866306007"
       stroke="#c2b59b"
       d="m 59.786,43.665 c 1.951,-2.238 3.536,-3.92 4.908,-5.566"
       transform="matrix(2.0633752,0,0,2.0633752,-85.35,-48.15)" />
    <path
       id="ID0.5523908301256597"
       fill="#726658"
       d="m 65.319,60.714 c -4.78,0.186 -8.6,4.195 -8.6,9.115 0,3.597 2.042,6.707 5.01,8.192 l 0.03,0.01 c -0.101,0.004 -0.202,0.006 -0.304,0.006 -4.94,0 -8.945,-4.084 -8.945,-9.121 0,-5.036 4.005,-9.12 8.945,-9.12 1.397,0 2.721,0.326 3.899,0.909 z"
       transform="matrix(2.0633752,0,0,2.0633752,-85.35,-48.15)" />
    <path
       id="ID0.559367491863668"
       fill="none"
       stroke="#c2b59b"
       d="m 59.773,98.411 c -1.365,-1.025 -3.875,-3.707 -6.392,-10.51 -3.564,-9.631 -3.814,-14.759 -3,-22.002 0.833,-7.417 6.851,-13.03 12.771,-13.03 6.445,0 11.668,6.08 11.668,13.578 0,1.971 -0.359,3.845 -1.01,5.534 l -0.021,0.045 c -1.307,3.732 -3.415,11.13 -2.213,18.251 0.999,5.909 5.754,10.506 5.754,10.506"
       transform="matrix(2.0633752,0,0,2.0633752,-85.35,-48.15)" />
    <path
       id="ID0.9389773323200643"
       fill="none"
       stroke="#c2b59b"
       d="m 61.454,59.795 c 2.468,0 4.704,1.022 6.323,2.673 1.62,1.651 2.622,3.932 2.622,6.448 0,2.516 -1.002,4.797 -2.622,6.448 -1.619,1.651 -3.855,2.673 -6.323,2.673 -2.468,0 -4.704,-1.022 -6.323,-2.673 -1.62,-1.651 -2.622,-3.932 -2.622,-6.448 0,-2.516 1.002,-4.797 2.622,-6.448 1.619,-1.651 3.855,-2.673 6.323,-2.673 z"
       transform="matrix(2.0633752,0,0,2.0633752,-85.35,-48.15)" />
    <path
       id="ID0.6667452291585505"
       fill="none"
       stroke="#c2b59b"
       d="m 98.409,67.019 c 0.515,2.14 0.788,4.374 0.788,6.676 0,15.364 -12.162,27.818 -27.163,27.818 -15,0 -26.978,-13.028 -26.978,-28.393 0,-4.473 0.788,-8.491 2.434,-12.236 1.646,-3.746 4.064,-7.249 9.673,-14.115 5.61,-6.865 8.624,-9.044 11.303,-14.318 2.679,-5.275 2.847,-8.622 4.019,-8.622 1.172,0 1.508,4.604 3.768,8.875 2.261,4.271 7.45,8.875 13.396,16.662 5.945,7.785 8.061,14.718 8.73,17.564 z"
       transform="matrix(2.0633752,0,0,2.0633752,-85.35,-48.15)" />
    <path
       id="ID0.8488279492594302"
       fill="none"
       stroke="#c2b59b"
       d="m 61.755,78.035 c -2.982,-1.48 -5.037,-4.6 -5.037,-8.206 0,-4.92 3.82,-8.93 8.6,-9.115"
       transform="matrix(2.0633752,0,0,2.0633752,-85.35,-48.15)" />
    <path
       id="ID0.8557561589404941"
       fill="#d1d3d4"
       stroke="#c2b59b"
       d="m 90.916,79.702 c 0,0 10.316,7.581 10.316,18.318 0,10.738 -5.158,22.74 -5.158,22.74 l -13.16,-19.582 z"
       transform="matrix(2.0633752,0,0,2.0633752,-85.35,-48.15)" />
  </g>
</svg>

<svg version="1.1" width="125" height="204" xmlns="http://www.w3.org/2000/svg" xmlns:xlink="http://www.w3.org/1999/xlink">
  <!-- Exported by Scratch - http://scratch.mit.edu/ -->
  <g id="ID0.25528564071282744" transform="matrix(0.9024999737739563, 0, 0, 0.9024999737739563, 0, 0.9)">
    <path id="ID0.5150838536210358" fill="#D1D3D4" stroke="#C2B59B" d="M 74.521 76.826 C 71.192 81.555 68.991 89.707 68.991 98.976 C 68.991 108.245 71.192 116.399 74.521 121.127 C 77.851 116.398 80.052 108.245 80.052 98.976 C 80.052 89.707 77.852 81.555 74.521 76.826 Z " transform="matrix(2.063375234603882, 0, 0, 2.063375234603882, -85.35, -48.15)"/>
    <path id="ID0.586994057521224" fill="#D1D3D4" stroke="#C2B59B" d="M 52.586 77.438 C 52.586 77.438 42.269 85.018 42.269 95.755 C 42.269 106.494 47.427 118.496 47.427 118.496 L 60.586 98.913 L 52.586 77.438 Z " transform="matrix(2.063375234603882, 0, 0, 2.063375234603882, -85.35, -48.15)"/>
    <path id="ID0.3152541941963136" fill="#CD372E" d="M 98.409 67.019 C 98.924 69.159 99.197 71.393 99.197 73.695 C 99.197 89.059 87.035 101.513 72.034 101.513 C 57.034 101.513 45.056 88.485 45.056 73.120 C 45.056 68.647 45.844 64.629 47.490 60.884 C 49.136 57.138 51.554 53.635 57.163 46.769 C 62.773 39.904 65.787 37.725 68.466 32.451 C 71.145 27.176 71.313 23.829 72.485 23.829 C 73.657 23.829 73.993 28.433 76.253 32.704 C 78.514 36.975 83.703 41.579 89.649 49.366 C 95.594 57.151 97.710 64.084 98.379 66.930 L 98.409 67.019 Z " transform="matrix(2.063375234603882, 0, 0, 2.063375234603882, -85.35, -48.15)"/>
    <path id="ID0.9130098931491375" fill="#27AAE1" d="M 61.870 56.481 C 64.927 56.481 67.697 57.723 69.703 59.729 C 71.709 61.735 72.951 64.505 72.951 67.562 C 72.951 70.619 71.709 73.389 69.703 75.395 C 67.697 77.401 64.927 78.643 61.870 78.643 C 58.813 78.643 56.043 77.401 54.037 75.395 C 52.031 73.389 50.789 70.619 50.789 67.562 C 50.789 64.505 52.031 61.735 54.037 59.729 C 56.043 57.723 58.813 56.481 61.870 56.481 Z " transform="matrix(2.063375234603882, 0, 0, 2.063375234603882, -85.35, -48.15)"/>
    <path id="ID0.6974497074261308" fill="#E6E7E8" d="M 77.330 100.783 C 77.330 100.783 72.574 96.186 71.576 90.277 C 70.375 83.156 72.483 75.758 73.789 72.026 L 73.810 71.981 C 74.460 70.292 74.820 68.418 74.820 66.447 C 74.820 58.949 69.597 52.869 63.152 52.869 C 57.233 52.869 51.215 58.482 50.381 65.899 C 49.566 73.142 49.816 78.270 53.381 87.901 C 55.747 94.293 58.106 97.047 59.515 98.206 L 59.549 98.258 C 63.274 100.330 67.518 101.513 72.035 101.513 C 73.876 101.513 75.675 101.325 77.413 100.967 L 77.330 100.783 Z M 61.455 78.037 C 56.515 78.037 52.510 73.953 52.510 68.916 C 52.510 63.880 56.515 59.796 61.455 59.796 C 66.395 59.796 70.400 63.880 70.400 68.916 C 70.399 73.953 66.395 78.037 61.455 78.037 Z " transform="matrix(2.063375234603882, 0, 0, 2.063375234603882, -85.35, -48.15)"/>
    <path id="ID0.5012194369919598" fill="#DA1C5C" d="M 77.671 35.005 C 75.794 35.548 73.717 35.849 71.531 35.849 C 69.876 35.849 68.283 35.676 66.791 35.357 L 66.767 35.359 C 67.360 34.474 67.920 33.527 68.467 32.451 C 68.633 32.125 68.789 31.806 68.936 31.497 L 68.993 31.504 C 69.814 31.624 70.663 31.687 71.532 31.687 C 72.924 31.687 74.265 31.527 75.526 31.229 L 75.548 31.229 C 75.761 31.720 75.995 32.215 76.254 32.705 C 76.650 33.455 77.138 34.217 77.704 35.001 L 77.671 35.005 Z " transform="matrix(2.063375234603882, 0, 0, 2.063375234603882, -85.35, -48.15)"/>
    <path id="ID0.29763966565951705" fill="#DA1C5C" d="M 64.711 38.113 C 66.787 38.907 69.201 39.362 71.776 39.362 C 74.765 39.362 77.535 38.749 79.814 37.705 L 79.826 37.689 C 81.232 39.362 82.885 41.194 84.701 43.300 L 84.680 43.305 C 81.280 44.907 76.770 45.881 71.823 45.881 C 67.274 45.881 63.096 45.057 59.810 43.680 " transform="matrix(2.063375234603882, 0, 0, 2.063375234603882, -85.35, -48.15)"/>
    <path id="ID0.420181293040514" fill="#A7A9AC" d="M 85.089 98.094 C 81.215 100.273 76.768 101.513 72.035 101.513 C 67.557 101.513 63.347 100.351 59.645 98.313 L 59.681 98.439 C 60.044 100.752 65.587 103.342 72.373 103.342 C 79.394 103.342 85.088 100.623 85.088 98.196 C 85.088 98.156 85.086 98.118 85.083 98.077 L 85.089 98.094 Z " transform="matrix(2.063375234603882, 0, 0, 2.063375234603882, -85.35, -48.15)"/>
    <path id="ID0.1553567578084767" fill="none" stroke="#C2B59B" d="M 85.083 98.077 C 85.086 98.118 85.088 98.156 85.088 98.196 C 85.088 100.623 79.395 103.342 72.373 103.342 C 65.587 103.342 60.044 100.752 59.681 98.439 " transform="matrix(2.063375234603882, 0, 0, 2.063375234603882, -85.35, -48.15)"/>
    <path id="ID0.32193026412278414" fill="none" stroke="#C2B59B" d="M 84.764 43.268 C 81.355 44.890 76.811 45.882 71.823 45.882 C 67.262 45.882 63.073 45.053 59.784 43.670 " transform="matrix(2.063375234603882, 0, 0, 2.063375234603882, -85.35, -48.15)"/>
    <path id="ID0.9922009585425258" fill="none" stroke="#C2B59B" d="M 77.722 34.989 C 75.832 35.542 73.737 35.848 71.531 35.848 C 69.866 35.848 68.264 35.673 66.765 35.349 " transform="matrix(2.063375234603882, 0, 0, 2.063375234603882, -85.35, -48.15)"/>
    <path id="ID0.14914615079760551" fill="none" stroke="#C2B59B" d="M 75.590 31.212 C 74.311 31.521 72.946 31.686 71.531 31.686 C 70.662 31.686 69.813 31.624 68.992 31.503 " transform="matrix(2.063375234603882, 0, 0, 2.063375234603882, -85.35, -48.15)"/>
    <path id="ID0.9143646494485438" fill="none" stroke="#C2B59B" d="M 79.943 37.646 C 77.641 38.726 74.822 39.363 71.776 39.363 C 69.192 39.363 66.772 38.904 64.693 38.107 " transform="matrix(2.063375234603882, 0, 0, 2.063375234603882, -85.35, -48.15)"/>
    <path id="ID0.2940642866306007" stroke="#C2B59B" d="M 59.786 43.665 C 61.737 41.427 63.322 39.745 64.694 38.099 " transform="matrix(2.063375234603882, 0, 0, 2.063375234603882, -85.35, -48.15)"/>
    <path id="ID0.5523908301256597" fill="#726658" d="M 65.319 60.714 C 60.539 60.900 56.719 64.909 56.719 69.829 C 56.719 73.426 58.761 76.536 61.729 78.021 L 61.759 78.031 C 61.658 78.035 61.557 78.037 61.455 78.037 C 56.515 78.037 52.510 73.953 52.510 68.916 C 52.510 63.880 56.515 59.796 61.455 59.796 C 62.852 59.796 64.176 60.122 65.354 60.705 L 65.319 60.714 Z " transform="matrix(2.063375234603882, 0, 0, 2.063375234603882, -85.35, -48.15)"/>
    <path id="ID0.559367491863668" fill="none" stroke="#C2B59B" d="M 59.773 98.411 C 58.408 97.386 55.898 94.704 53.381 87.901 C 49.817 78.270 49.567 73.142 50.381 65.899 C 51.214 58.482 57.232 52.869 63.152 52.869 C 69.597 52.869 74.820 58.949 74.820 66.447 C 74.820 68.418 74.461 70.292 73.810 71.981 L 73.789 72.026 C 72.482 75.758 70.374 83.156 71.576 90.277 C 72.575 96.186 77.330 100.783 77.330 100.783 " transform="matrix(2.063375234603882, 0, 0, 2.063375234603882, -85.35, -48.15)"/>
    <path id="ID0.9389773323200643" fill="none" stroke="#C2B59B" d="M 61.454 59.795 C 63.922 59.795 66.158 60.817 67.777 62.468 C 69.397 64.119 70.399 66.400 70.399 68.916 C 70.399 71.432 69.397 73.713 67.777 75.364 C 66.158 77.015 63.922 78.037 61.454 78.037 C 58.986 78.037 56.750 77.015 55.131 75.364 C 53.511 73.713 52.509 71.432 52.509 68.916 C 52.509 66.400 53.511 64.119 55.131 62.468 C 56.750 60.817 58.986 59.795 61.454 59.795 Z " transform="matrix(2.063375234603882, 0, 0, 2.063375234603882, -85.35, -48.15)"/>
    <path id="ID0.6667452291585505" fill="none" stroke="#C2B59B" d="M 98.409 67.019 C 98.924 69.159 99.197 71.393 99.197 73.695 C 99.197 89.059 87.035 101.513 72.034 101.513 C 57.034 101.513 45.056 88.485 45.056 73.120 C 45.056 68.647 45.844 64.629 47.490 60.884 C 49.136 57.138 51.554 53.635 57.163 46.769 C 62.773 39.904 65.787 37.725 68.466 32.451 C 71.145 27.176 71.313 23.829 72.485 23.829 C 73.657 23.829 73.993 28.433 76.253 32.704 C 78.514 36.975 83.703 41.579 89.649 49.366 C 95.594 57.151 97.710 64.084 98.379 66.930 L 98.409 67.019 Z " transform="matrix(2.063375234603882, 0, 0, 2.063375234603882, -85.35, -48.15)"/>
    <path id="ID0.8488279492594302" fill="none" stroke="#C2B59B" d="M 61.755 78.035 C 58.773 76.555 56.718 73.435 56.718 69.829 C 56.718 64.909 60.538 60.899 65.318 60.714 " transform="matrix(2.063375234603882, 0, 0, 2.063375234603882, -85.35, -48.15)"/>
    <path id="ID0.8557561589404941" fill="#D1D3D4" stroke="#C2B59B" d="M 90.916 79.702 C 90.916 79.702 101.232 87.283 101.232 98.020 C 101.232 108.758 96.074 120.760 96.074 120.760 L 82.914 101.178 L 90.916 79.702 Z " transform="matrix(2.063375234603882, 0, 0, 2.063375234603882, -85.35, -48.15)"/>
  </g>
</svg>
